X: 9105
T: Da Sneck O' Da Smaalie
R: reel
M: 4/4
K: Aminor
|:eAAc BABc|EAcA dBGB|eAAc BABc|AcBG ~A2A2:|
|:FAAc BABc|dcBc ecBA|FAAc BABc|dcBc ~A2A2:|

